X: 1303
T: Miss Murray of Auchtertyre's Strathspey
%R: strathspey
B: Niel Gow & Sons "Complete Repository" v.1 P.30 #3 (and top staff on p.31)
Z: 2021 John Chambers <jc:trillian.mit.edu>
M: C
L: 1/8
C: by John Bowie
K: F
% - - - - - - - - - -
% Voice 1 formatted for compactness and proofreading.
V: 1 staves=2
!p!c |\
(A/B/c) f>c ~d>cfc | (A/B/c) f>c Td>cd<f |\
(A/B/c) f>c (d/e/f/g/) a>g | {g}f>d {d}c>A {A}F2F :|
!f!\
A/B/ | c<Fd<F c<Ff>d | cF {d}cB/A/ {A}G2 GA/B/ | c<Fc>A f<ag<a | {g}f>d {d}c>A TF2 FA/B/ ||
       c<Fd<F c<Ff>d | cF {d}cB/A/ {A}G2 GA/B/ | c<Fc>A f<ag<a | {g}f>d {d}c>A TF2 F |]
% - - - - - - - - - -
% Voice 2 preserves the book's staff layout.
V: 2 clef=bass middle=d
!p!z | f2[f2a2] [f2b2][f2a2] | f2a2 b2B2 | f2a2 b2b2 | c'2c2 f2f :| z | !f![f2a2][f2b2] [f2a2][f2b2] | a2f2 c'2c2 |
f2F2 A2c2 | B2c2 F2F2 || [f2a2][f2b2] [f2a2][f2b2] | a2f2 c'2c2 | f2F2 A2c2 | B2c2 F2F |]


